img/sprites/phone.svg

<svg width="44" height="44" viewBox="0 0 44 44" fill="none" xmlns="http://www.w3.org/2000/svg">
<g id="ic:baseline-call">
<path id="Vector" d="M36.685 27.6967C34.43 27.6967 32.2483 27.33 30.2133 26.67C29.8945 26.5619 29.5517 26.5459 29.2242 26.6237C28.8967 26.7015 28.5978 26.8701 28.3617 27.11L25.4833 30.7217C20.295 28.2467 15.4367 23.5717 12.8517 18.2L16.4267 15.1567C16.9217 14.6433 17.0683 13.9283 16.8667 13.2867C16.1883 11.2517 15.84 9.07 15.84 6.815C15.84 5.825 15.015 5 14.025 5H7.68167C6.69167 5 5.5 5.44 5.5 6.815C5.5 23.8467 19.6717 38 36.685 38C37.9867 38 38.5 36.845 38.5 35.8367V29.5117C38.5 28.5217 37.675 27.6967 36.685 27.6967Z" fill="#13023E"/>
</g>
</svg>

<svg width="44" height="44" viewBox="0 0 44 44" fill="none" xmlns="http://www.w3.org/2000/svg"><g id="ic:baseline-call"><path id="Vector" d="M36.685 27.697c-2.255 0-4.437-.367-6.472-1.027a1.791 1.791 0 00-1.851.44l-2.879 3.612c-5.188-2.475-10.046-7.15-12.631-12.522l3.575-3.043a1.871 1.871 0 00.44-1.87 20.445 20.445 0 01-1.027-6.472c0-.99-.825-1.815-1.815-1.815H7.682C6.692 5 5.5 5.44 5.5 6.815 5.5 23.847 19.672 38 36.685 38c1.302 0 1.815-1.155 1.815-2.163v-6.325c0-.99-.825-1.815-1.815-1.815z" fill="#13023E"/></g></svg>
